niddler-plugin/src/main/resources/pluginIcon.svg

<svg height="124pt" viewBox="0 0 150 124" width="150pt" xmlns="http://www.w3.org/2000/svg"><path d="m44.24 0h.5c19.62 20.45 40.08 40.07 59.98 60.25 14.58 15.24 29.93 29.73 44.53 44.96-14.39 6.47-29.24 11.93-43.46 18.79h-.57c-19.86-20.71-40.78-40.38-60.72-61.02-9.56-8.92-18.59-18.4-27.6-27.88-5.6-5.21-11.05-10.59-16.9-15.52v-.58c10-3.81 19.75-8.26 29.64-12.36 4.92-2.09 9.92-4.02 14.6-6.64z" fill="#474747"/><path d="m148.64 0h1.36v51.36c-3.55-8.82-8.08-17.72-15.83-23.58-7.71-6.32-17.67-8.78-27.36-10.02 13.91-6 28.08-11.41 41.83-17.76z" fill="#699cd0"/><path d="m0 76.57c5.55 8.3 10.7 17.6 19.77 22.57 6.55 4.29 14.58 4.61 21.69 7.5-13.83 5.61-27.48 11.7-41.46 16.91z" fill="#699cd0"/><g fill="#3474b4"><path d="m105.21 18.32c.4-.14 1.2-.42 1.6-.56 9.69 1.24 19.65 3.7 27.36 10.02 7.75 5.86 12.28 14.76 15.83 23.58v53.51l-.75.34c-14.6-15.23-29.95-29.72-44.53-44.96.15-13.98.39-27.95.49-41.93z"/><path d="m0 19.58c5.85 4.93 11.3 10.31 16.9 15.52 9.01 9.48 18.04 18.96 27.6 27.88.48 14.07.03 28.16.15 42.24-1.06.49-2.12.97-3.19 1.42-7.11-2.89-15.14-3.21-21.69-7.5-9.07-4.97-14.22-14.27-19.77-22.57z"/></g></svg>

<?xml version="1.0" encoding="UTF-8" ?>
<!DOCTYPE svg PUBLIC "-//W3C//DTD SVG 1.1//EN" "http://www.w3.org/Graphics/SVG/1.1/DTD/svg11.dtd">
<svg width="150pt" height="124pt" viewBox="0 0 150 124" version="1.1" xmlns="http://www.w3.org/2000/svg">
<g id="#474747ff">
<path fill="#474747" opacity="1.00" d=" M 44.24 0.00 L 44.74 0.00 C 64.36 20.45 84.82 40.07 104.72 60.25 C 119.30 75.49 134.65 89.98 149.25 105.21 C 134.86 111.68 120.01 117.14 105.79 124.00 L 105.22 124.00 C 85.36 103.29 64.44 83.62 44.50 62.98 C 34.94 54.06 25.91 44.58 16.90 35.10 C 11.30 29.89 5.85 24.51 0.00 19.58 L 0.00 19.00 C 10.00 15.19 19.75 10.74 29.64 6.64 C 34.56 4.55 39.56 2.62 44.24 0.00 Z" />
</g>
<g id="#699cd0ff">
<path fill="#699cd0" opacity="1.00" d=" M 148.64 0.00 L 150.00 0.00 L 150.00 51.36 C 146.45 42.54 141.92 33.64 134.17 27.78 C 126.46 21.46 116.50 19.00 106.81 17.76 C 120.72 11.76 134.89 6.35 148.64 0.00 Z" />
<path fill="#699cd0" opacity="1.00" d=" M 0.00 76.57 C 5.55 84.87 10.70 94.17 19.77 99.14 C 26.32 103.43 34.35 103.75 41.46 106.64 C 27.63 112.25 13.98 118.34 0.00 123.55 L 0.00 76.57 Z" />
</g>
<g id="#3474b4ff">
<path fill="#3474b4" opacity="1.00" d=" M 105.21 18.32 C 105.61 18.18 106.41 17.90 106.81 17.76 C 116.50 19.00 126.46 21.46 134.17 27.78 C 141.92 33.64 146.45 42.54 150.00 51.36 L 150.00 104.87 L 149.25 105.21 C 134.65 89.98 119.30 75.49 104.72 60.25 C 104.87 46.27 105.11 32.30 105.21 18.32 Z" />
<path fill="#3474b4" opacity="1.00" d=" M 0.00 19.58 C 5.85 24.51 11.30 29.89 16.90 35.10 C 25.91 44.58 34.94 54.06 44.50 62.98 C 44.98 77.05 44.53 91.14 44.65 105.22 C 43.59 105.71 42.53 106.19 41.46 106.64 C 34.35 103.75 26.32 103.43 19.77 99.14 C 10.70 94.17 5.55 84.87 0.00 76.57 L 0.00 19.58 Z" />
</g>
</svg>
